X:26
T:Miss Shepherd
O:Scotland
R:Reel
M:4/4
C:J. Scott Skinner
R: Reel
K:Am
{^G}A|\
A,B, CD E2 DC|B,G ^FG DB, G,B,|\
A,B, CD E^G Ac|BA ^GB cA A:|
^g|\
a2 ed cB A^F|G2 DC B,A, G,^g|\
a2 ed cB Ac|BA ^GB cA A^g|
a/a/a ed cB A^F|G/G/G DC B,A, G,B,|\
A,B, CD E^G Ac|BA ^G[eB] cA A|]

